lib/flags/m/MEX.svg

<svg xmlns="http://www.w3.org/2000/svg" fill="none" viewBox="0 0 20 15"><mask id="MEX_svg__a" width="20" height="15" x="0" y="0" mask-type="alpha" maskUnits="userSpaceOnUse"><path fill="#fff" d="M0 0H20V15H0z"/></mask><g mask="url(#MEX_svg__a)"><path fill="#D9071E" fill-rule="evenodd" d="M14 0H20V15H14V0Z" clip-rule="evenodd"/><path fill="#006923" fill-rule="evenodd" d="M0 0H6V15H0V0Z" clip-rule="evenodd"/><path fill="#fff" fill-rule="evenodd" d="M6 0H14V15H6V0Z" clip-rule="evenodd"/><path fill="#FCCA3D" fill-rule="evenodd" d="M8.9901 4.94592C8.9901 4.94592 8.56085 5.27883 8.64113 5.63376C8.7214 5.98868 9.56734 5.63376 9.46508 5.28984C9.36281 4.94592 8.9901 4.94592 8.9901 4.94592Z" clip-rule="evenodd"/><path fill="#A8AC71" fill-rule="evenodd" d="M8.33464 5.79261C8.01347 5.79261 7.87957 5.52497 7.946 5.24049C7.98151 5.08846 8.07372 4.89561 8.22418 4.64502L8.76001 4.96675C8.70264 5.06229 8.65692 5.14522 8.62301 5.21367C8.73534 5.24686 8.84608 5.29615 8.93621 5.3555C9.22803 5.54767 9.33544 5.89007 9.02259 6.14383C8.96204 6.19295 8.86378 6.36039 8.80955 6.5212C8.95882 6.52952 9.06553 6.55197 9.16388 6.61015C9.44012 6.77355 9.41414 7.07156 9.20377 7.3017C9.05467 7.46481 8.85558 7.59712 8.66803 7.66489C8.35599 7.77765 8.02214 7.73446 8.02214 7.33499L8.02207 7.33207C8.02145 7.3158 8.02041 7.28799 8.15976 7.28484M8.16587 7.28472L8.15976 7.28484C7.92199 7.28147 7.8711 7.15559 7.84144 6.93146C7.83393 6.87468 7.8309 6.82064 7.82673 6.70403L7.82395 6.62814L7.8206 6.55424L7.8196 6.53781C7.8149 6.46566 7.81165 6.4157 7.97339 6.4157H7.61084V5.7907H7.97339C8.17901 5.7907 8.29264 5.86013 8.35776 6.00369C8.39401 5.9386 8.43344 5.8773 8.47494 5.82236C8.42267 5.80426 8.36965 5.79261 8.33464 5.79261M8.16587 7.28472C8.17257 7.28461 8.17957 7.28455 8.1869 7.28455L8.1774 7.28449L8.16587 7.28472ZM8.73273 6.89042L8.74246 6.88001C8.74139 6.88117 8.74035 6.88266 8.73934 6.88444L8.73273 6.89042ZM8.45891 7.07589C8.45877 7.07595 8.45913 7.07587 8.45982 7.07572L8.45891 7.07589ZM8.45976 6.84012L8.46104 6.84948C8.46032 6.84405 8.45965 6.83809 8.45902 6.83139L8.45976 6.84012Z" clip-rule="evenodd"/><path fill="#8F4620" fill-rule="evenodd" d="M12.0415 7.75182C12.0415 7.75182 12.6197 6.03848 11.7007 5.15158C10.7817 4.26469 9.71975 4.32403 9.71975 4.32403C9.71975 4.32403 9.41394 4.55125 9.71975 4.72454C10.0256 4.89782 9.89744 5.06397 9.89744 5.06397C9.89744 5.06397 9.38529 4.54395 9.0453 4.84777C8.70532 5.15158 9.36268 5.10535 9.29309 5.33411C9.22351 5.56287 8.92869 6.57853 9.35948 7.09131C9.79027 7.60409 8.95218 7.4928 9.12263 7.4928C9.29309 7.4928 9.89744 7.61216 9.89744 7.4928C9.89744 7.37345 10.1075 7.95686 10.2873 7.95686C10.4671 7.95686 10.6059 7.75182 10.6059 7.75182C10.6059 7.75182 10.858 7.95686 11.0116 7.95686C11.1651 7.95686 11.7007 7.82267 11.7007 7.82267L10.6885 6.96985C10.6885 6.96985 10.7495 6.59368 10.6059 6.51227C10.4623 6.43085 11.757 7.23379 11.8584 7.4928C11.9598 7.75182 12.0415 7.75182 12.0415 7.75182Z" clip-rule="evenodd"/><path fill="#9FAB2F" d="M6.91656 7.32911C6.91656 7.32911 7.01041 7.03001 7.11088 7.00925C7.19792 6.99126 7.38096 7.15258 7.38096 7.15258C7.70611 8.95875 8.49232 9.6642 9.79686 9.6642C11.1167 9.6642 11.9167 9.12815 12.3835 7.46236C12.3835 7.46236 12.6317 7.20893 12.7192 7.2371C12.8146 7.26777 12.934 7.60307 12.934 7.60307C12.3985 9.51408 11.3866 10.3649 9.79686 10.3649C8.19173 10.3649 7.28991 9.40299 6.91656 7.32911Z"/><path fill="#2FC2DC" fill-rule="evenodd" d="M8.33392 8.53528C8.33392 8.53528 10.2116 8.93362 10.9528 8.93362C11.6939 8.93362 10.3025 9.53849 9.75959 9.53849C9.21667 9.53849 8.33392 8.53528 8.33392 8.53528Z" clip-rule="evenodd"/><rect width="1.25" height=".67" x="9.167" y="8.813" fill="#F9AA51" rx=".104"/><path fill="#259485" d="M7.60974 7.58491L8.12138 7.22595C8.78728 8.17509 9.7831 8.48734 11.1759 8.16144L11.3183 8.77001C9.69012 9.15097 8.43161 8.75636 7.60974 7.58491Z"/><path fill="#FCCA3D" fill-rule="evenodd" d="M10.3696 7.71887C10.3696 7.71887 9.61108 8.11817 9.86393 8.11817 10.1168 8.11817 11.1063 8.31782 10.9138 8.11817 10.7212 7.91852 10.3696 7.71887 10.3696 7.71887zM9.47277 7.2427C9.47277 7.2427 9.32864 6.82642 9.02871 6.82642 8.72878 6.82642 8.81344 7.1679 8.66921 7.1679 8.52497 7.1679 8.8036 7.4082 8.92779 7.4082 9.05197 7.4082 9.47277 7.2427 9.47277 7.2427z" clip-rule="evenodd"/></g></svg>

<svg xmlns="http://www.w3.org/2000/svg" fill="none" viewBox="0 0 20 15"><mask id="MEX_svg__a" width="20" height="15" x="0" y="0" maskUnits="userSpaceOnUse"><path fill="#fff" d="M0 0h20v15H0z"/></mask><g mask="url(#MEX_svg__a)"><path fill="#D9071E" fill-rule="evenodd" d="M14 0h6v15h-6V0z" clip-rule="evenodd"/><path fill="#006923" fill-rule="evenodd" d="M0 0h6v15H0V0z" clip-rule="evenodd"/><path fill="#fff" fill-rule="evenodd" d="M6 0h8v15H6V0z" clip-rule="evenodd"/><path fill="#FCCA3D" fill-rule="evenodd" d="M8.99 4.946s-.43.333-.349.688c.08.355.926 0 .824-.344-.102-.344-.475-.344-.475-.344z" clip-rule="evenodd"/><path fill="#A8AC71" fill-rule="evenodd" d="M8.335 5.793c-.322 0-.455-.268-.389-.553.035-.152.128-.344.278-.595l.536.322a3.585 3.585 0 00-.137.247 1.2 1.2 0 01.313.141c.292.193.4.535.087.789-.061.049-.16.216-.213.377a.74.74 0 01.354.09c.276.162.25.46.04.69-.15.164-.348.296-.536.364-.312.113-.646.07-.646-.33v-.003c0-.016-.002-.044.138-.047m.006 0H8.16c-.238-.004-.289-.13-.319-.354a2.316 2.316 0 01-.014-.227l-.003-.076-.003-.074-.001-.016c-.005-.072-.008-.122.153-.122h-.362V5.79h.362c.206 0 .32.07.385.213.036-.065.075-.127.117-.182a.482.482 0 00-.14-.03m-.17 1.493h.022-.021zm.568-.395l.01-.01a.024.024 0 00-.004.004l-.006.006zm-.274.186zm0-.236l.002.01a.5.5 0 01-.002-.019v.01z" clip-rule="evenodd"/><path fill="#8F4620" fill-rule="evenodd" d="M12.041 7.752s.579-1.714-.34-2.6c-.92-.887-1.981-.828-1.981-.828s-.306.227 0 .4c.306.174.177.34.177.34s-.512-.52-.852-.216c-.34.304.318.257.248.486-.07.229-.364 1.245.066 1.757.431.513-.407.402-.236.402.17 0 .774.12.774 0s.21.464.39.464c.18 0 .319-.205.319-.205s.252.205.406.205c.153 0 .689-.134.689-.134l-1.013-.853s.061-.376-.082-.458c-.144-.081 1.151.722 1.252.98.102.26.183.26.183.26z" clip-rule="evenodd"/><path fill="#9FAB2F" d="M6.917 7.33s.093-.3.194-.32c.087-.019.27.143.27.143.325 1.806 1.111 2.511 2.416 2.511 1.32 0 2.12-.536 2.586-2.202 0 0 .249-.253.336-.225.096.03.215.366.215.366-.535 1.911-1.547 2.762-3.137 2.762-1.605 0-2.507-.962-2.88-3.036z"/><path fill="#2FC2DC" fill-rule="evenodd" d="M8.334 8.535s1.878.399 2.619.399c.74 0-.65.604-1.193.604S8.334 8.535 8.334 8.535z" clip-rule="evenodd"/><rect width="1.25" height=".67" x="9.167" y="8.813" fill="#F9AA51" rx=".104"/><path fill="#259485" d="M7.61 7.585l.511-.359c.666.95 1.662 1.261 3.055.935l.142.609c-1.628.381-2.886-.014-3.708-1.185z"/><path fill="#FCCA3D" fill-rule="evenodd" d="M10.37 7.719s-.759.4-.506.4 1.242.199 1.05 0c-.193-.2-.544-.4-.544-.4zm-.897-.476s-.144-.417-.444-.417c-.3 0-.216.342-.36.342s.135.24.259.24.545-.165.545-.165z" clip-rule="evenodd"/></g></svg>
